!!!!SEGMENT: pl-sa--597-a-ix-77--003_anonim--walc-no-2.krn
!!!cenid: 18xx:639
!!!COM: Anonim
!!!COM-rism: pe30004985
!!!CDT:
!!!CNT:
!!!OTL: Walc No 2
!!!PDT:
!!!AGN: Secular
!!!SMS-siglum: PL-SA
!!!SMS-shelfmark: 597/A IX 77
!!!NIFC-rismID:
!!!URL-scan: http://bc.bdsandomierz.pl/dlibra/publication/1405/edition/1373/content
!!!ONB-nifc: Str. 3 (s. 2) – str. 4
!!!SMS-variant:
!!!SMS-altvar:
**kern	**kern
*part2	*part1
*staff2	*staff1
*I"Piano	*I"Piano
*clefF4	*clefG2
*k[f#c#g#]	*k[f#c#g#]
*M3/4	*M3/4
*>[A,A,B,B,C,C,D,D]	*>[A,A,B,B,C,C,D,D]
*>A	*>A
!	!LO:TX:b:t=No 2.
.	8qdd 8qb/
4r	(8.cc#L 8.a\
.	16bJk 16g#\
=1	=1
4AA/	4cc# 4a\)
4A 4E 4C#\	4r
.	(8qdd 8qb/
4r	8.cc#L 8.a\
.	16bJk 16g#\
=2	=2
4AA/	4cc# 4a\)
4A 4E 4C#\	(4dd 4b\
4r	4dd#X 4b#X\
=3	=3
*	*2\right
4AA/	2.ee 2.cc#\)
4A 4E 4C#\	.
4A 4E 4C#\	.
=4	=4
4AA/	4aa 4cc#\
4A 4E 4C#\	4r
.	8qcc# 8qa/
4r	(8.bL 8.g#/
.	16a#XJk 16f##X/)
=5	=5
4E\	4b 4g#/
4e 4B 4G#\	4r
.	8qcc# 8qa/
4r	(8.bL 8.g#/
.	16a#XJk 16f##X/)
=6	=6
4E\	(4b 4g#\
4e 4B 4G#\	4ccn 4a\
4r	4cc#X 4a#X\)
=7	=7
4E\	2.dd 2.b\
4e 4B 4G# 4E\	.
4e 4B 4G# 4E\	.
!!LO:LB:g=original
=8	=8
4E\	4gg# 4b\
4e 4B 4G#\	4r
.	(8qdd 8qb/
4r	8.cc#L 8.a/
.	16bJk 16g#/)
=9	=9
4AA/	4cc# 4a/
4A 4E 4C#\	4r
.	(8qdd 8qb/
4r	8.cc#L 8.a/
.	16bJk 16g#/)
=10	=10
4AA/	(4cc# 4a\
4A 4E 4C#\	4dd 4b\
4r	4dd#X 4b#X\)
=11	=11
4AA/	2.ee 2.cc#\
4C#/	.
4E/	.
=12	=12
4A 4AA\	4aa 4cc#\
4A 4E 4C# 4AA\	4r
4r	4aa 4ee 4cc#\
=13	=13
4EE/	8.dddL 8.dd\
.	16ccc#Jk 16cc#\
4E 4BB 4GG#/	4bb 4b\
4E 4BB 4GG#/	4eee 4ee\
=14	=14
4AA/	8.ccc#L 8.cc#\
.	16bbJk 16b\
4A 4E 4C#\	4aa 4a\
4A 4E 4C#\	4eee 4ee\
=15	=15
4EE/	8.bbL 8.b\
.	16aaJk 16a\
4E 4BB 4GG#/	4gg# 4g#\
4E 4BB 4GG#/	4eee 4ee\
=16	=16
4AA/	4aa 4a\
4A 4E 4C#\	4r
!!LO:LB:g=original
=:|!|:	=:|!|:
*>B	*>B
4r	4ee\
=17	=17
4e 4c# 4A\	(8ff#\L
.	8ee\
4e 4c# 4A\	8dd#X\
.	8ee\
4e 4c# 4A\	8ff#\
.	8ee\J)
=18	=18
*rep	*
4e 4c# 4A\	(8aa\L
.	8ee\J)
4e 4c# 4A\	4.ccc#\
4e 4c# 4A\	.
.	8ee\
*Xrep	*
=19	=19
4e 4d 4B 4G#\	(8bb\L
.	8ee\J)
4e 4d 4B 4G#\	4.ddd\
4e 4d 4B 4G#\	.
.	8ee\
=20	=20
4e 4c# 4A\	(8ccc#\L
.	8ddd\
4e 4c# 4A\	8eee\
.	8fff#\J
4e 4c# 4A\	4eee\)
=21	=21
4e 4c# 4A\	(8ff#\L
.	8ee\
4e 4c# 4A\	8dd#X\
.	8ee\
4e 4c# 4A\	8ff#\
.	8ee\J)
=22	=22
4e 4c# 4A\	(8aa\L
.	8ee\J)
4e 4c# 4A\	4.ccc#\
4e 4c# 4A\	.
.	8ee\
=23	=23
4e 4d 4B 4G#\	8bb\L
.	8ee\J
4e 4d 4B 4G#\	4.ddd\
4e 4d 4B 4G#\	.
.	8ee\
=24	=24
4e 4c# 4A\	4aa\
4r	4r
!!LO:LB:g=original
=:|!|:	=:|!|:
*>C	*>C
4r	4bb 4b\
=25	=25
8G#L 8E\	4eee 4ee\
8B\	.
8G# 8E\	4bb 4b\
8B\	.
8G# 8E\	4ggg# 4gg#\
8B\J	.
=26	=26
8G#L 8E\	4eee 4ee\
8B\	.
8G# 8E\	4bbb 4bb\
8B\	.
8G# 8E\	4ggg# 4gg#\
8B\J	.
=27	=27
*	*8va
8G#L 8E\	4eeee 4eee\
8B\	.
!	!LO:SIC:v:n=2:s=4dd#
!	!LO:SIC:v:n=1:s=4ddd#
8G# 8E\	4dddd 4ddd\
8B\	.
8G# 8E\	4cccc# 4ccc#\
8B\J	.
=28	=28
8G#L 8E\	4cccc# 4ccc#\
8B\	.
8G# 8E\	4bbb 4bb\
8B\	.
8G# 8E\	4r
8B\J	.
*	*X8va
=29	=29
!LO:SIC:v:n=3:s=4D#	!LO:TX:a:t=loco
8AL 8F# 8D 8BB\	4aa 4ff#'\
8B\	.
!	!LO:TX:a:t=|:problem
8A 8F# 8BB\	4ff# 4b\
8B\	.
8A 8F# 8BB\	4r
8B\J	.
=30	=30
!	!LO:TX:a:t=|:problem
8G#L 8E\	4gg# 4ee\
8B\	.
8G# 8E\	4gg# 4g#'\
8B\	.
8G# 8E\	4r
8B\J	.
=31	=31
4BB\	4ff# 4f#/
!LO:SIC:v:n=3:s=4D#	!
4A 4F# 4D\	4bb 4b/
!LO:SIC:v:n=3:s=4D#	!
4A 4F# 4D\	8aaL 8a/
.	8ff#J 8f#/
=32	=32
4E\	2ee 2e/
!LO:TX:a:t=P:problem:niejednoznaczny zapis kreski taktowej	!LO:TX:a:t=P:problem:niejednoznaczny zapis kreski taktowej
!LO:TX:b:t=Stani Streiblo z Lubtenic:problem:napis na dole strony małymi literami	!
4e 4B 4G# 4E\	.
!!LO:PB:g=original
=:|!|:	=:|!|:
*>D	*>D
!	!LO:TX:b:t=Volti subito
4r	4ee\
=33	=33
8A\L	2aa 2a\
8e\	.
8c#\	.
8e\	.
8c#\	4ee\
8e\J	.
=34	=34
8E\L	2gg# 2g#\
8e\	.
8B 8G# 8E\	.
8e\	.
8B 8G# 8E\	4ee\
8e\J	.
=35	=35
8E\L	2ddd 2dd\
8e\	.
8B 8G# 8E\	.
8e\	.
8B 8G# 8E\	4bb\
8e\J	.
=36	=36
8A\L	2ccc# 2cc#\
8e\	.
8c#\	.
8e\	.
8c#\	4aa\
8e\J	.
=37	=37
4E\	8gg#\L
.	8bb\J
4e 4B 4G#\	4ee\
4e 4B 4G#\	4eee\
=38	=38
4A\	(8ccc#\L
.	8bb\J)
4e 4c#\	4aa\
4e 4c#\	4eee\
=39	=39
4E\	(8bb\L
.	8aa\J)
4e 4B 4G#\	4gg#\
4e 4B 4G#\	4eee 4ee\
=40	=40
4A\	2aa\
4AA/	.
==:|!	==:|!
*-	*-
!!!system-decoration: {s1,s2}
!!!ENC: Marta Lawrence
!!!END: 2020-12-14
!!!ENC: Andrzej Kubiczek
!!!END: 2020-06-20
